X:203
T:The Stack of Barley                                                                               
R:Hornpipe                                                                                          
D:Kevin Burke: Up Close                                                                             
H:Also played in A                                                                                  
Z:id:hn-hornpipe-14                                                                                 
M:C|                                                                                                
K:G                                                                                                 
gf|: efed B2dB|AGEG AcBA|GFGA BG (3Bcd|egdB A2Bd|                                                   
(3efg ed B2dB|AGEG AcBA|GFGA (3Bcd Ac|1 B2G2 G2 gf :|2 B2 G2 G2 GA ||                               
BG (3Bcd g2fg|agfg edBd|g2fg edBd|(3efg dB A2GA|                                                    
(3Bcd ef g2fe|dBAG AcBA|GFGA (3Bcd Ac|1 B2G2 G2 GA:|2 B2 G2 G2 gf |>|
